public/library/tari-icon-dark.svg

<svg width="32" height="32" viewBox="0 0 32 32" fill="none" xmlns="http://www.w3.org/2000/svg">
<circle cx="16" cy="16" r="16" fill="black"/>
<path d="M6 11.5961V17.4432L14.6844 27L27 17.4777V11.591L14.7236 6L6 11.5961ZM13.6418 22.7435L8.10485 16.6504V13.3371L13.6418 14.7407V22.7435ZM15.7466 23.5423V15.2733L23.801 17.3151L15.7466 23.5423ZM24.8962 12.9163V15.4511L9.80956 11.6276L14.8969 8.36405L24.8952 12.9173L24.8962 12.9163Z" fill="white"/>
</svg>

<svg xmlns="http://www.w3.org/2000/svg" width="32" height="32" fill="none" viewBox="0 0 32 32"><circle cx="16" cy="16" r="16" fill="#000"/><path fill="#fff" d="M6 11.596v5.847L14.684 27 27 17.478V11.59L14.724 6zm7.642 11.148L8.105 16.65v-3.313l5.537 1.404zm2.105.798v-8.269l8.054 2.042zm9.15-10.626v2.535L9.81 11.628l5.087-3.264 9.998 4.553z"/></svg>
